components/Common/Svg/svgs/behance.svg

<svg
  width="48"
  height="49"
  viewBox="0 0 48 49"
  fill="none"
  xmlns="http://www.w3.org/2000/svg"
>
  <path
    d="M28.3125 18.0102H34.5469V19.5227H28.3125V18.0102ZM22.0656 23.9945C23.4438 23.3351 24.1656 22.332 24.1656 20.782C24.1656 17.7164 21.8844 16.9727 19.25 16.9727H12V32.3601H19.4531C22.2469 32.3601 24.8687 31.0164 24.8687 27.8914C24.8687 25.9601 23.9563 24.532 22.0656 23.9945ZM15.3812 19.5977H18.5531C19.775 19.5977 20.8719 19.9383 20.8719 21.357C20.8719 22.6633 20.0188 23.1883 18.8094 23.1883H15.3812V19.5977ZM18.9906 29.7476H15.3781V25.5101H19.0625C20.55 25.5101 21.4906 26.132 21.4906 27.707C21.4906 29.257 20.3688 29.7476 18.9906 29.7476ZM36.9844 26.9508C36.9844 23.6539 35.0562 20.907 31.5688 20.907C28.1781 20.907 25.8719 23.4601 25.8719 26.807C25.8719 30.2758 28.0562 32.657 31.5688 32.657C34.2281 32.657 35.95 31.4601 36.7781 28.907H34.0812C33.7875 29.8601 32.5938 30.3601 31.6656 30.3601C29.8719 30.3601 28.9344 29.3101 28.9344 27.5258H36.9625C36.9719 27.3414 36.9844 27.1476 36.9844 26.9508ZM28.9344 25.5945C29.0312 24.1289 30.0094 23.2133 31.4719 23.2133C33.0094 23.2133 33.7781 24.1164 33.9125 25.5945H28.9344Z"
    fill="currentColor"
  ></path>
  <circle
    opacity="0.3"
    cx="24"
    cy="24.9727"
    r="23.5"
    stroke="currentColor"
  ></circle>
</svg>

<svg width="48" height="49" viewBox="0 0 48 49" fill="none" xmlns="http://www.w3.org/2000/svg"><path d="M28.313 18.01h6.234v1.513h-6.234V18.01Zm-6.247 5.984c1.378-.659 2.1-1.662 2.1-3.212 0-3.066-2.282-3.81-4.916-3.81H12V32.36h7.453c2.794 0 5.416-1.344 5.416-4.469 0-1.93-.913-3.359-2.803-3.896Zm-6.685-4.396h3.172c1.222 0 2.319.34 2.319 1.759 0 1.306-.853 1.831-2.063 1.831h-3.428v-3.59Zm3.61 10.15h-3.613V25.51h3.684c1.488 0 2.429.622 2.429 2.197 0 1.55-1.122 2.04-2.5 2.04Zm17.993-2.797c0-3.297-1.928-6.044-5.415-6.044-3.39 0-5.697 2.553-5.697 5.9 0 3.469 2.184 5.85 5.697 5.85 2.66 0 4.381-1.197 5.21-3.75H34.08c-.294.953-1.487 1.453-2.415 1.453-1.794 0-2.732-1.05-2.732-2.834h8.028c.01-.185.022-.378.022-.575Zm-8.05-1.357c.097-1.465 1.075-2.38 2.538-2.38 1.537 0 2.306.902 2.44 2.38h-4.978Z" fill="currentColor"/><circle opacity=".3" cx="24" cy="24.973" r="23.5" stroke="currentColor"/></svg>
